X:1
T:Strange were the life - Bateson
T:James Gibb editions
T:#
%%score 1 2 3 4
L:1/8
Q:1/4=120
M:4/4
K:C
V:1 treble nm="Soprano I" snm="S I"
V:2 treble nm="Soprano II" snm="S II"
V:3 treble nm="Alto" snm="A"
V:4 treble-8 nm="Tenor" snm="T"
V:1
"^Strange were the life""^Thomas Bateson\n (1575-1630)" z8 | z8 | z8 | z4!p! e4- | e4 d2 c2 | d8 | %6
w: |||Strange|* were the|life,|
[M:4/4] z4 g4- | g4 f2 e2 | f4 e4- | e4 e2 d2 | e6 B2 | e6 d2 | c6 c2 | B4 z2!f! e2 | d4 B4 | %15
w: strange|* were the|life, strange|* were the|life, that|ev'- ry|man would|like, More|strange the|
 e4 z2 d2 | B4 ^c4 | d8 | z8 | z2 B2 ^c4 | B4 e4- | e2 e2 d4- | d4 ^c4 | B6 ^c2 | d8- | d4 ^c4 | %26
w: state, more|strange the|state,||more strange|the state|* that should|* dis-|like each|one,|* dis-|
 B6 B2 | A4!p! e4- | e4 d2 c2 | B4 z4 | z8 | z4 c4- | c4 B2 A2 | ^G4 z4 | z4 z2 d2 | ^c2 d2 e2 f2 | %36
w: like each|one; Rare|* were the|gem,||rare|* were the|gem,|that|ev'- ry one would|
 e2 d2 ^c2 d2 | (e2 d4) ^c2 | d2!mf! f2 f2 f2 | e2 d2 ^c4 | z8 | z2 e2 e2 d2 | e2 A2 B4 | %43
w: seek that ev'- ry|one * would|seek, And lit- tle,|lit- tle worth,||and lit- tle,|lit- tle worth,|
 z4 z2!f! e2 | e2 d2 e2 e2 | A2 d2 d2 ^c2 | d3 =c B2 B2 | A4 A4 | A4 A4 | A8 | z4!p! d4 | c4 d4 | %52
w: and|lit- tle, lit- tle|worth, and lit- tle,|lit- tle worth that|all would|let a-|lone.|Sweet|were the|
 e2 A2 d2 d2 | ^c2 e2 e2 d2 | e4 e4 | d2 e2 c3 d | e6!f! e2 | e4 ^d4 | e8 | z4 A4 | A4 ^G4 | %61
w: meat, sweet were the|meat, sweet were the|meat that|ev'- ry one would|choose, And|sour the|sauce,|and|sour the|
 A4 z2 d2 | ^f4 e4 | d8 | z8 | z4 d4 | d4 ^c4 | d4 A4 |[Q:1/4=117] B6[Q:1/4=113] B2 | %69
w: sauce, and|sour the|sauce,||and|sour the|sauce that|all men|
[Q:1/4=109] A8- |[Q:1/4=104] A4[Q:1/4=101] A4 |[Q:1/4=100] A16 |] %72
w: would|* re-|fuse.|
V:2
!p! _B8- | B4 A2 G2 | A8- | A8 | z4 A4- | A4 G2 F2 |[M:4/4] G8 | z4 c4- | c4 =B2 A2 | B6 A2 | %10
w: Strange|* were the|life,||strange|* were the|life,|strange|* were the|life, that|
 (^G2 A2) B4 | A8- | A4 (E3 ^F) | ^G4!f! E4 | ^F4 ^G4 | A8 | z4 z2 A2 | ^F4 ^G4 | A8 | z8 | z8 | %21
w: ev'\- * ry|man|* would *|like, More|strange the|state,|more|strange the|state,|||
 z2 E2 ^F4 | E4 A4- | A2 A2 =G4- | G4 ^F4 | E8 | (E6 D2) | ^C4!p! =c4- | c4 B2 A2 | ^G4 z4 | z8 | %31
w: more strange|the state|* that should|* dis-|like|each *|one; Rare|* were the|gem,||
 z4 E4 | E4 A,4 | B,4 A,4 | A2 GF E2 D2 | A4 z2 D2 | ^C2 D2 E2 F2 | A2 (A3 G) E2 | %38
w: rare|were the|gem that|e- ve- ry one would|seek, that|e- ve- ry one|would seek, * would|
 ^F2!mf! A2 A2 A2 | A2 (FG) A4 | z4 z2 A2 | c2 B2 c2 A2 | A4 z4 | z2!f! A2 A2 ^G2 | A2 F2 E4 | %45
w: seek, And lit- tle,|lit- tle * worth,|and|lit- tle, lit- tle|worth,|and lit- tle,|lit- tle worth,|
 z2 D2 F2 E2 | F2 D2 G4- | G2 F2 E2 D2 | (^C2 D2) E4 | ^F4 z2!p! A2 | A6 G2 | A4 z2 F2 | E4 D4 | %53
w: and lit- tle,|lit- tle worth|* that all would|let * a-|lone. Sweet|were the|meat, sweet|were the|
 E2 c2 B2 A2 | ^G6 A2 | B3 ^G A2 A2 | ^G8 | z4!f! A4 | ^c4 B4 | A8 | z4 E4 | E4 D4 | A8- | A8 | %64
w: meat, sweet were the|meat that|ev'- ry one would|choose,|And|sour the|sauce,|and|sour the|sauce,||
 z4 A4 | A4 ^G4 | A6 =G2 | ^F6 =F2 | E4 D4 | ^C4 (D4- | D2 ^CB, C4) | D16 |] %72
w: and|sour, and|sour the|sauce that|all men|would re\-||fuse.|
V:3
 z8 |!p! F8- | F4 E2 D2 | E8 | z8 | z4 D4- |[M:4/4] D4 C2 B,2 | C4 z4 | z4 z2 C2 | B,2 A,2 (B,4- | %10
w: |Strange|* were the|life,||strange|* were the|life,|strange|were the life,|
 B,2 A,2) ^G,4 | A,2 B,2 (C4- | C2 B,2) A,4 | B,8 | z8 | z4 z2!f! A2 | G4 E4 | A4 z4 | z2 E2 ^F4 | %19
w: * * that|ev'- ry man|* * would|like,||More|strange the|state,|more strange|
 ^G4 A4- | A4 ^G4 | A8 | (=G2 =F2) E4- | E4 (D2 ^C2) | B,4 A,4 | ^G,2 G,2 A,4- | A,4 ^G,4 | %27
w: the state|* that|should|dis\- * like|* each *|one, that|should dis- like|* each|
 A,4 z2!p! A,2 | C4 D4 | E4 E4- | E4 D2 C2 | B,4 z4 | z8 | z8 | z2 D2 ^C2 D2 | E2 F2 E2 z2 | %36
w: one; Rare|were the|gem, rare|* were the|gem,|||that ev'- ry|one would seek,|
 z2 A2 G2 F2 | (E2 F2) E4 | D4 z4 | z4 z2!mf! A2 | A2 A2 G2 F2 | E4 z2 D2 | D2 ^C2 D2 B,2 | %43
w: that ev'- ry|one * would|seek,|And|lit- tle, lit- tle|worth, and|lit- tle, lit- tle|
 A,3 A, C2 B,2 | C2 A,2 A,4 | z8 | z2 D2 E2 D2 | ^C2 D2 E2 F2 | E2 D2 D2 ^C2 | D4 z2!p! D2 | %50
w: worth, and lit- tle,|lit- tle worth,||that all would|let a- lone, that|all would let a-|lone. Sweet|
 E4 D4 | E4 z2 A2 | A4 G4 | A4 z2 A,2 | C2 B,2 C2 A,2 | D2 G2 E2 A,2 | E8 | z4 z2!f! A2 | A4 ^G4 | %59
w: were the|meat, sweet|were the|meat, sweet|were the meat that|ev'- ry one would|choose,|And|sour the|
 A4 A,4 | ^C4 B,4 | A,8 | z4 z2 E2 | ^F6 E2 | D4 z4 | z4 z2 D2 | ^F4 E4 | D4 z2 A2 | G8- | G4 ^F4 | %70
w: sauce, and|sour the|sauce,|and|sour the|sauce,|and|sour the|sauce that|all|* men|
 E6 E2 | ^F16 |] %72
w: would re-|fuse.|
V:4
 z8 |!p! d8- | d4 ^c2 B2 | ^c8 | A8 | A2 A2 B4- |[M:4/4][K:treble-8] B4 e4- | e4 d2 c2 | d4 z4 | %9
w: |Strange|* were the|life,|strange|were the life,|* strange|* were the|life,|
 z8 | e2 dc B2 B2 | c2 d2 e4- | e2 (d2 cd e2) | e8 | z4 z2!f! e2 | c4 d4 | e8 | z2 d2 B4 | %18
w: |strange were the life that|ev'- ry man|* would * * *|like,|More|strange the|state,|more strange|
 ^c4 d2 =c2 | B4 A4 | B6 B2 | A8 | z8 | z4 G4 | d6 c2 | B4 A4 | B4 E4 | E4 z4 | z8 | z4!p! c4- | %30
w: the state that|should dis-|like each|one,||that|should dis-|like each|one, each|one;||Rare|
 c4 B2 A2 | ^G4 z2 A2 | c4 d4 | e8 | z8 | z2 d2 ^c2 d2 | e2 f2 e2 d2 | ^c2 d2 e2 A2 | A2 z2 z4 | %39
w: * were the|gem, rare|were the|gem||that ev'- ry|one would seek, that|ev'- ry one would|seek,|
 z2!mf! d2 f2 e2 | f2 d2 e2 a2 | a2 g2 a2 f2 | e4 z2 e2 | e2 c2 e3 B | A4 z2!f! A2 | A2 ^G2 A3 =G | %46
w: And lit- tle,|lit- tle worth, and|lit- tle, lit- tle|worth, and|lit- tle, lit- tle|worth, and|lit- tle, lit- tle|
 F2 A2 G2 F2 | E3 D ^C2 D2 | E2 F2 E2 E2 | D4 z2!p! d2 | c4 B4 | A6 A2 | A4 D4 | A4 z4 | %54
w: worth that all would|let a- lone, that|all would let a-|lone. Sweet|were the|meat, sweet|were the|meat,|
 z2 e2 (e2 dc) | B4 c3 A | B4!f! e4 | ^f4 f4 | e6 e2 | e4 ^d4 | e8 | z4 =d4 | d4 ^c4 | d4 d4 | %64
w: that ev'\- * *|ry one would|choose, And|sour the|sauce, and|sour the|sauce,|and|sour the|sauce, and|
 ^f4 e4 | (d2 c2) B4 | A4 A4 | D4 z2 D2 | G6 F2 | E4 D4 | E4 A4 | A16 |] %72
w: sour the|sauce, * and|sour the|sauce that|all me|would re-|fuse, re-|fuse.|

